X:1
T: Sandwiches
C:
R:Strathspey
Q: 128
K:Am
M:4/4
L:1/16
|:A3A A3A ee3 e4|AA3 A3B e4 e3e|dd3 d3d G3G G3A|B3A B3c d4 c3d|
ee3 e3e A3A A3B|c3B c3d e4 c3d|e3e e3f e3d c3d|e3A A3^G A4 z4|
a4 a4 ee3 e4|a3^g a3b c'3b a4|g4 g4 dd3 d4|g3^f g3a b3a ^g3b|
a4 a4 ee3 e3f|e3d c3d e4 c3d|e4 e3f e3d c3d|e3A A3G A4 z4:|
